X:240
T: Shi li dun
N: C0377
O: China,Hebei, Zhangbei, Nordwesten i.d. Nhe v. Shanxi und Menggu)
S: IV, 64]
N: Dise Weise ist typischer in der Provinz Shanxi
R: Xiaodiao]
M: 2/4
L: 1/32
K: F
F4F4 | F4F4G2G2G2G2 | c4D4C8 | c4D4C8 |
c3cc2c2B3cf2d2 | c8c8 |
B6c2f4d4 | c8c8 |
G2A2G2F2D4F4 | G16 |
G6A2c8 | A2c2d2f2c4A4 | G8c6A2 | F6D2C8 |
G6A2G4F4
G4G2A2G4F4
G4G2A2G4F4
G4G2A2G4F4
G2G2G2^F2G2G2G2F2 | G4A4G2G2G2G2 | c4D4F4F4 | G3FG2c2C8- | C8

@@@ Tune index: 6241
